resources/svg/money-stack.svg

<svg xmlns="http://www.w3.org/2000/svg" viewBox="0 0 15 15" fill="currentColor"><path d="M6 5.5C6 4.67157 6.67157 4 7.5 4C8.32843 4 9 4.67157 9 5.5C9 6.32843 8.32843 7 7.5 7C6.67157 7 6 6.32843 6 5.5Z" fill="black"/><path fill-rule="evenodd" clip-rule="evenodd" d="M1.5 0C0.671573 0 0 0.671573 0 1.5V9.5C0 10.3284 0.671574 11 1.5 11H13.5C14.3284 11 15 10.3284 15 9.5V1.5C15 0.671573 14.3284 0 13.5 0H1.5ZM4 2H2V4H3V3H4V2ZM7.5 3C6.11929 3 5 4.11929 5 5.5C5 6.88071 6.11929 8 7.5 8C8.88071 8 10 6.88071 10 5.5C10 4.11929 8.88071 3 7.5 3ZM12 3H11V2H13V4H12V3ZM3 7H2V9H4V8H3V7ZM11 9V8H12V7H13V9H11Z" fill="black"/><path d="M0 12V13H15V12H0Z" fill="black"/><path d="M0 14V15H15V14H0Z" fill="black"/></svg>

<svg xmlns="http://www.w3.org/2000/svg" viewBox="0 0 15 15" fill="currentColor"><path d="M6 5.5a1.5 1.5 0 113 0 1.5 1.5 0 01-3 0z" fill="currentColor"/><path fill-rule="evenodd" clip-rule="evenodd" d="M1.5 0A1.5 1.5 0 000 1.5v8A1.5 1.5 0 001.5 11h12A1.5 1.5 0 0015 9.5v-8A1.5 1.5 0 0013.5 0h-12zM4 2H2v2h1V3h1V2zm3.5 1a2.5 2.5 0 100 5 2.5 2.5 0 000-5zM12 3h-1V2h2v2h-1V3zM3 7H2v2h2V8H3V7zm8 2V8h1V7h1v2h-2z" fill="currentColor"/><path d="M0 12v1h15v-1H0zm0 2v1h15v-1H0z" fill="currentColor"/></svg>
